X:681
T: "Die Henne"
N: Z1362
O: Europa, Mitteleuropa, Oesterreich
R: Kinder - Lied
M: 2/4
L: 1/16
K: G
G3AGFED | EGced4 | EGced4 |
dcBAcBAG | BAGFG4 |
d3ed3e | dcBAB2G2 |
d3ed3e | dcBAB2G2 |
G3AGFED | EGced4 | EGced4 |
dcBAcBAG | BAGFG4

@@@ Tune index: 10439
